suite-common/icons/assets/icons/trezorT1B1.svg

<svg xmlns="http://www.w3.org/2000/svg" fill="none" viewBox="0 0 24 24">
  <path fill="#000" fill-rule="evenodd" d="M11.08 1.024c-1.398.12-2.589.317-3.265.539-.873.286-1.564 1.081-1.753 2.018-.058.286-.064.902-.053 6.039l.013 5.72.093.5c.12.644.321 1.304.559 1.837.176.393 2.136 4.068 2.358 4.421.265.422.805.774 1.32.861.192.032.814.042 2.032.032 1.915-.016 1.873-.011 2.33-.264.292-.161.645-.548.812-.888.308-.632 1.849-3.992 1.943-4.239.262-.685.42-1.381.491-2.16.032-.354.041-2.156.031-6.16-.015-6.235.005-5.766-.262-6.331-.305-.646-.89-1.171-1.544-1.386-.483-.159-1.654-.378-2.585-.484-.388-.043-2.194-.083-2.52-.055m2.32 1.539c.877.09 1.979.298 2.35.444.262.103.511.347.646.633l.104.22v5.7c0 6.104.003 5.992-.204 6.793-.14.541-.287.889-1.273 3.027-.599 1.297-.903 1.913-.982 1.987-.162.15-.311.161-2.028.146-1.428-.012-1.492-.016-1.597-.095-.073-.055-.413-.644-1.006-1.74-1.374-2.546-1.505-2.822-1.707-3.598-.207-.796-.203-.669-.203-6.64V3.86l.104-.22c.135-.286.384-.53.646-.633.514-.202 1.997-.442 3.11-.503.384-.021 1.604.014 2.04.059M9.24 6.037c-.291.09-.552.317-.658.572-.087.208-.093 3.559-.007 3.765.078.188.291.416.481.518l.164.088h5.56l.164-.088c.19-.102.403-.33.481-.518.086-.206.08-3.557-.007-3.765a1.13 1.13 0 0 0-.478-.503c-.159-.086-.175-.086-2.88-.093-1.496-.004-2.765.007-2.82.024M14 8.5v1.02h-4V7.48h4zm-5.06 4.067c-.127.07-.302.244-.364.361-.125.239-.037.693.171.88.188.17.332.192 1.253.192s1.065-.022 1.253-.192c.199-.179.296-.639.182-.861a1.1 1.1 0 0 0-.363-.371c-.138-.071-2.004-.08-2.132-.009m4 0c-.127.07-.302.244-.364.361-.125.239-.037.693.171.88.188.17.332.192 1.253.192s1.065-.022 1.253-.192c.199-.179.296-.639.182-.861a1.1 1.1 0 0 0-.363-.371c-.138-.071-2.004-.08-2.132-.009"/>
</svg>

<svg xmlns="http://www.w3.org/2000/svg" fill="none" viewBox="0 0 24 24"><path d="M11.080 1.024 C 9.682 1.144,8.491 1.341,7.815 1.563 C 6.942 1.849,6.251 2.644,6.062 3.581 C 6.004 3.867,5.998 4.483,6.009 9.620 L 6.022 15.340 6.115 15.840 C 6.235 16.484,6.436 17.144,6.674 17.677 C 6.850 18.070,8.810 21.745,9.032 22.098 C 9.297 22.520,9.837 22.872,10.352 22.959 C 10.544 22.991,11.166 23.001,12.384 22.991 C 14.299 22.975,14.257 22.980,14.714 22.727 C 15.006 22.566,15.359 22.179,15.526 21.839 C 15.834 21.207,17.375 17.847,17.469 17.600 C 17.731 16.915,17.889 16.219,17.960 15.440 C 17.992 15.086,18.001 13.284,17.991 9.280 C 17.976 3.045,17.996 3.514,17.729 2.949 C 17.424 2.303,16.839 1.778,16.185 1.563 C 15.702 1.404,14.531 1.185,13.600 1.079 C 13.212 1.036,11.406 0.996,11.080 1.024 M13.400 2.563 C 14.277 2.653,15.379 2.861,15.750 3.007 C 16.012 3.110,16.261 3.354,16.396 3.640 L 16.500 3.860 16.500 9.560 C 16.500 15.664,16.503 15.552,16.296 16.353 C 16.156 16.894,16.009 17.242,15.023 19.380 C 14.424 20.677,14.120 21.293,14.041 21.367 C 13.879 21.517,13.730 21.528,12.013 21.513 C 10.585 21.501,10.521 21.497,10.416 21.418 C 10.343 21.363,10.003 20.774,9.410 19.678 C 8.036 17.132,7.905 16.856,7.703 16.080 C 7.496 15.284,7.500 15.411,7.500 9.440 L 7.500 3.860 7.604 3.640 C 7.739 3.354,7.988 3.110,8.250 3.007 C 8.764 2.805,10.247 2.565,11.360 2.504 C 11.744 2.483,12.964 2.518,13.400 2.563 M9.240 6.037 C 8.949 6.127,8.688 6.354,8.582 6.609 C 8.495 6.817,8.489 10.168,8.575 10.374 C 8.653 10.562,8.866 10.790,9.056 10.892 L 9.220 10.980 12.000 10.980 L 14.780 10.980 14.944 10.892 C 15.134 10.790,15.347 10.562,15.425 10.374 C 15.511 10.168,15.505 6.817,15.418 6.609 C 15.340 6.421,15.147 6.218,14.940 6.106 C 14.781 6.020,14.765 6.020,12.060 6.013 C 10.564 6.009,9.295 6.020,9.240 6.037 M14.000 8.500 L 14.000 9.520 12.000 9.520 L 10.000 9.520 10.000 8.500 L 10.000 7.480 12.000 7.480 L 14.000 7.480 14.000 8.500 M8.940 12.567 C 8.813 12.637,8.638 12.811,8.576 12.928 C 8.451 13.167,8.539 13.621,8.747 13.808 C 8.935 13.978,9.079 14.000,10.000 14.000 C 10.921 14.000,11.065 13.978,11.253 13.808 C 11.452 13.629,11.549 13.169,11.435 12.947 C 11.369 12.818,11.195 12.641,11.072 12.576 C 10.934 12.505,9.068 12.496,8.940 12.567 M12.940 12.567 C 12.813 12.637,12.638 12.811,12.576 12.928 C 12.451 13.167,12.539 13.621,12.747 13.808 C 12.935 13.978,13.079 14.000,14.000 14.000 C 14.921 14.000,15.065 13.978,15.253 13.808 C 15.452 13.629,15.549 13.169,15.435 12.947 C 15.369 12.818,15.195 12.641,15.072 12.576 C 14.934 12.505,13.068 12.496,12.940 12.567 " stroke="none" fill-rule="evenodd" fill="black"></path></svg>
